images/editable/437.svg

<svg width="941" height="600" xmlns="http://www.w3.org/2000/svg">
 <!-- Created with Method Draw - http://github.com/duopixel/Method-Draw/ -->

 <g>
  <title>background</title>
  <rect fill="#FFFFFF" opacity="0" id="canvas_background" height="602" width="943" y="-1" x="-1"/>
  <g display="none" overflow="visible" y="0" x="0" height="100%" width="100%" id="canvasGrid">
   <rect fill="url(#gridpattern)" stroke-width="0" y="0" x="0" height="100%" width="100%"/>
  </g>
 </g>
 <g>
  <title>Layer 1</title>
  <metadata transform="matrix(2.0087997364528434,0,0,2.0087997364528434,0,0) " id="svg_15">image/svg+xml</metadata>

  <g stroke="null" id="svg_17">
   <path fill="#ffffff" fill-rule="nonzero" id="svg_14" d="m228.00623,465.83151l484.98753,0l0,-331.66302l-484.98753,0l0,331.66302zm0,0"/>
   <path stroke="#211e1e" fill="none" stroke-width="0.2835" stroke-miterlimit="4" id="svg_13" d="m228.00623,465.83151l484.98753,0l0,-331.66302l-484.98753,0l0,331.66302"/>
   <path fill="#3f3a3f" fill-rule="nonzero" id="svg_12" d="m706.4167,164.90433l0,270.06079c0,13.10717 -9.93398,23.7823 -22.0249,23.7823l-427.78366,0c-12.21239,0 -22.02486,-10.67512 -22.02486,-23.7823l0,-270.06079c0,-12.99297 9.81247,-23.66805 22.02486,-23.66805l427.78366,0c12.09091,0 22.0249,10.67508 22.0249,23.66805"/>
   <path fill="#ffffff" fill-rule="nonzero" id="svg_11" d="m699.8396,164.90433c0,-9.14077 -6.94164,-16.60031 -15.4478,-16.46972l-427.78366,0c-8.50616,-0.13058 -15.44776,7.32895 -15.44776,16.46972l0,270.06079c0,9.25501 6.94161,16.58397 15.44776,16.58397l427.78366,0c8.50616,0 15.4478,-7.32895 15.4478,-16.58397l0,-270.06079"/>
   <path fill="#211e1e" fill-rule="nonzero" id="svg_10" d="m568.29797,275.1159c-0.36455,1.27319 -2.15689,1.27319 -2.52144,0l-3.47841,-12.73181l-7.16947,4.48878l-76.37314,47.33615l0,118.43826l-16.51104,0l0,-118.43826l-76.37314,-47.33615l-7.16947,-4.48878l-3.47841,12.73181c-0.36455,1.27319 -2.15693,1.27319 -2.52148,0l-9.5694,-31.38876c-0.24303,-0.76716 0.24303,-1.66494 1.07844,-1.79552l29.92343,-6.93717c1.32152,-0.26116 2.15693,1.40373 1.32152,2.43209l-8.50616,9.51618l7.18464,4.50511l76.37314,47.31981l76.35794,-47.31981l7.18464,-4.50511l-8.50616,-9.51618c-0.83541,-1.02836 0,-2.69326 1.2,-2.43209l30.04495,6.93717c0.83541,0.13058 1.19996,1.02836 0.95693,1.79552l-9.44792,31.38876"/>
  </g>
  <text xml:space="default" dominant-baseline="middle" text-anchor="middle" font-family="sans-serif" font-size="30" id="svg_19" y="199.83321" x="330" stroke-width="0" stroke="#000" fill="#000000">param(text1)</text>
  <text xml:space="default" dominant-baseline="middle" text-anchor="middle" font-family="sans-serif" font-size="30" id="svg_20" y="198.7221" x="570" stroke-width="0" stroke="#000" fill="#000000">param(text2)</text>
 </g>
</svg>

<?xml version="1.0" encoding="UTF-8" standalone="no"?>
<svg
   xmlns:dc="http://purl.org/dc/elements/1.1/"
   xmlns:cc="http://creativecommons.org/ns#"
   xmlns:rdf="http://www.w3.org/1999/02/22-rdf-syntax-ns#"
   xmlns:svg="http://www.w3.org/2000/svg"
   xmlns="http://www.w3.org/2000/svg"
   xmlns:sodipodi="http://sodipodi.sourceforge.net/DTD/sodipodi-0.dtd"
   xmlns:inkscape="http://www.inkscape.org/namespaces/inkscape"
   width="127"
   height="81"
   version="1.1"
   id="svg2463"
   sodipodi:docname="437.svg"
   inkscape:version="1.0.2 (e86c870879, 2021-01-15, custom)">
  <metadata
     id="metadata2469">
    <rdf:RDF>
      <cc:Work
         rdf:about="">
        <dc:format>image/svg+xml</dc:format>
        <dc:type
           rdf:resource="http://purl.org/dc/dcmitype/StillImage" />
        <dc:title></dc:title>
      </cc:Work>
    </rdf:RDF>
  </metadata>
  <defs
     id="defs2467" />
  <sodipodi:namedview
     pagecolor="#ffffff"
     bordercolor="#666666"
     borderopacity="1"
     objecttolerance="10"
     gridtolerance="10"
     guidetolerance="10"
     inkscape:pageopacity="0"
     inkscape:pageshadow="2"
     inkscape:window-width="1920"
     inkscape:window-height="1017"
     id="namedview2465"
     showgrid="false"
     inkscape:zoom="1.9582575"
     inkscape:cx="187.61099"
     inkscape:cy="47.932157"
     inkscape:window-x="3832"
     inkscape:window-y="-8"
     inkscape:window-maximized="1"
     inkscape:current-layer="svg2463" />
  <!-- Created with Method Draw - http://github.com/duopixel/Method-Draw/ -->
  <g
     id="g2448">
    <title
       id="title2442">background</title>
    <rect
       fill="#ffffff"
       opacity="0"
       id="canvas_background"
       height="602"
       width="943"
       y="-1"
       x="-1" />
    <g
       display="none"
       overflow="visible"
       y="0"
       x="0"
       height="100%"
       width="100%"
       id="canvasGrid">
      <rect
         fill="url(#gridpattern)"
         stroke-width="0"
         y="0"
         x="0"
         height="100%"
         width="100%"
         id="rect2445" />
    </g>
  </g>
  <g
     id="g2461"
     transform="matrix(0.23737195,0,0,0.23737195,-46.98054,-30.833989)">
    <title
       id="title2450">Layer 1</title>
    <metadata
       transform="matrix(2.0087997364528434,0,0,2.0087997364528434,0,0) "
       id="svg_15">image/svg+xml</metadata>
    <g
       stroke="null"
       id="svg_17">
      <path
         fill="#ffffff"
         fill-rule="nonzero"
         id="svg_14"
         d="M 228.00623,465.83151 H 712.99376 V 134.16849 H 228.00623 Z m 0,0" />
      <path
         stroke="#211e1e"
         fill="none"
         stroke-width="0.2835"
         stroke-miterlimit="4"
         id="svg_13"
         d="M 228.00623,465.83151 H 712.99376 V 134.16849 H 228.00623 v 331.66302" />
      <path
         fill="#3f3a3f"
         fill-rule="nonzero"
         id="svg_12"
         d="m 706.4167,164.90433 v 270.06079 c 0,13.10717 -9.93398,23.7823 -22.0249,23.7823 H 256.60814 c -12.21239,0 -22.02486,-10.67512 -22.02486,-23.7823 V 164.90433 c 0,-12.99297 9.81247,-23.66805 22.02486,-23.66805 H 684.3918 c 12.09091,0 22.0249,10.67508 22.0249,23.66805" />
      <path
         fill="#ffffff"
         fill-rule="nonzero"
         id="svg_11"
         d="m 699.8396,164.90433 c 0,-9.14077 -6.94164,-16.60031 -15.4478,-16.46972 H 256.60814 c -8.50616,-0.13058 -15.44776,7.32895 -15.44776,16.46972 v 270.06079 c 0,9.25501 6.94161,16.58397 15.44776,16.58397 H 684.3918 c 8.50616,0 15.4478,-7.32895 15.4478,-16.58397 V 164.90433" />
      <path
         fill="#211e1e"
         fill-rule="nonzero"
         id="svg_10"
         d="m 568.29797,275.1159 c -0.36455,1.27319 -2.15689,1.27319 -2.52144,0 l -3.47841,-12.73181 -7.16947,4.48878 -76.37314,47.33615 V 432.64728 H 462.24447 V 314.20902 l -76.37314,-47.33615 -7.16947,-4.48878 -3.47841,12.73181 c -0.36455,1.27319 -2.15693,1.27319 -2.52148,0 l -9.5694,-31.38876 c -0.24303,-0.76716 0.24303,-1.66494 1.07844,-1.79552 l 29.92343,-6.93717 c 1.32152,-0.26116 2.15693,1.40373 1.32152,2.43209 l -8.50616,9.51618 7.18464,4.50511 76.37314,47.31981 76.35794,-47.31981 7.18464,-4.50511 -8.50616,-9.51618 c -0.83541,-1.02836 0,-2.69326 1.2,-2.43209 l 30.04495,6.93717 c 0.83541,0.13058 1.19996,1.02836 0.95693,1.79552 l -9.44792,31.38876" />
    </g>
    <text
       xml:space="default"
       dominant-baseline="middle"
       text-anchor="middle"
       font-family="sans-serif"
       font-size="30px"
       id="svg_19"
       y="199.83321"
       x="330"
       stroke-width="0"
       stroke="#000000"
       fill="#000000">param(text1)</text>
    <text
       xml:space="default"
       dominant-baseline="middle"
       text-anchor="middle"
       font-family="sans-serif"
       font-size="30px"
       id="svg_20"
       y="198.72211"
       x="570"
       stroke-width="0"
       stroke="#000000"
       fill="#000000">param(text2)</text>
  </g>
</svg>
